X:1
T:Linda McFarlane
R:March
S:Finlay Allison: GFW
Z:Ted Hastings <ted@hastings.nu>
M:4/4
L:1/8
K:G
D/E/ F \
| G2 FG DG Bd | d2 cA G2 FG | E2 e>d cB AG | B2 A2 A2 D2 |
| G2 FG DG Bd | d2 cA G2 FG | E2 e>d cF BA | G2 G>A G2 ||
B>c \
| d2 B>c dB gf | e2 c>d ec ge | d2 G>A Bd gd | B2 A2 A2 D2 |
| G2 FG DG Bd | d2 cA G2 FG | E2 e>d cF BA | G2 G>A G2 |]
